airplane-remove.svg

<svg fill="currentColor" viewBox="0 0 24 24"><path d="M15.97 13.83A5.9 5.9 0 0 0 13.82 16l-2.27-4.37-3.89 3.87L8 18l-1.05 1.06-1.77-3.19L2 14.11l1.06-1.06 2.48.35 3.89-3.9L2 5.62l1.41-1.41 9.2 2.12 3.89-3.89a1.49 1.49 0 0 1 2.12 0c.58.59.58 1.56 0 2.12l-3.89 3.89zm6.57 3.05-1.42-1.41L19 17.59l-2.12-2.12-1.41 1.41L17.59 19l-2.12 2.12 1.41 1.42L19 20.41l2.12 2.13 1.42-1.42L20.41 19z"/></svg>

<svg  viewBox="0 0 24 24" fill="currentColor"><path  d="M15.97 13.83C15.08 14.35 14.34 15.09 13.82 16L11.55 11.63L7.66 15.5L8 18L6.95 19.06L5.18 15.87L2 14.11L3.06 13.05L5.54 13.4L9.43 9.5L2 5.62L3.41 4.21L12.61 6.33L16.5 2.44C17.08 1.85 18.03 1.85 18.62 2.44C19.2 3.03 19.2 4 18.62 4.56L14.73 8.45L15.97 13.83M22.54 16.88L21.12 15.47L19 17.59L16.88 15.47L15.47 16.88L17.59 19L15.47 21.12L16.88 22.54L19 20.41L21.12 22.54L22.54 21.12L20.41 19L22.54 16.88Z"/></svg>
